X:9
T:Buebätraim-Juiz  Bb
T:aus Dankbarkeit gewidmet meinem Bruder André und seiner Frau Silvia
T:Michael Wallimann (3.3.1977)
T:Dirigenten-Notiz  Edi Gasser
C:Unterwalden (CH)
%%partsbox
%P:ABCD
M:4/4
R:Naturjodel
L:1/8
K:Bb 
[P:A] FF| B2DCD2 F2 | d2fed2Fe | c2EDC2F2 | dedBc2FF | 
B2DCD2F2 | d2fed2Fe | c2EDC2F2 | d2c2B2 ||  
M:3/4
[P:B] FF |d2df ed | gfe2cB | A2A2GA | Bcd2FF | d2df ed | 
gfe2ce | d2Fd dc | B4FF | d2df ed | gfe2cB | A2A2GA | 
Bcd2FF | d2df ed | gfe2ce | d2Fd dc | B4z2 || 
M:4/4
[P:C] d3d/f/ edcB |  G2E>Ec4 | c3B/c/ dcBG | 
F2D>EF4 | d3d/f/ edcB |  G2E>E c3e | d2FB/d/ f2dc | B6z2 || 
M:4/4
[P:D] F2EDB2F2 | GEecd2B2 | c2FEc2A2 | BdBGF4 | F2EDB2F2 | 
GEecd2B2 | c2FEc2Fc | d2c2B4 |] F2 E>DB2F2 | GEec d2B2 | c2FEc2A2 | 
BdBGF4 | F2E>DB2F2 | GEecd2B2 | c2FEc2Fd | dfdcB4 |] 
W:
W:Reihenfolge: A - B - C - D
W:
W:Buebätraim (dt. Bube(n) - boy(s), Traum - dream)
W:
W:notiert Edi Gasser. Angaben Michael Wallimann
W:UJV-Naturjodelsammlung: Code-Nr: 39-05
W:http://www.naturjodler.ch/code 39.htm  (with AUDIO)
%Sept 14, 2018

